X:1
T:Title
%%score { 1 | 2 }
L:1/8
M:4/4
K:Ab
V:1 treble nm="Grand Piano"
V:2 bass 
V:1
 z4 z2[Q:1/4=100] [CA][DB] | [Ec]2 [Ec]2 [CA]2 [DG][EA] | [DB][FA][FA][DF] [CE]2 [EA]B | %3
 c>c cc e2 c2 | [GB]6 [FB][Fc] | [Fd]>[Fd] [Fd][Fc] [FB]2 [FA][FB] | %6
 [Ec]>[Ec] [Ec][EB] [EA]2 [FA]F | E2 c2 B3 [CA] |[M:3/4] [CA]6 |[M:1/4] cd | %10
[M:4/4] e2 e2 c2 [DB][CA] | [DF]2 [DF]2 [CE]2 [EA]B | c>c cc e2 c2 | [GB]6 cd | %14
 e2 e2 [Ec]2 [EB][EA] | [FB][FA][FA][DF] [CE]2 [CE][CE] | [DF]>[EG] [FA][FB] [Ec]2 [DB]2 | %17
[M:3/4] [CA]6 |] %18
V:2
 z4 z2 [A,,A,][A,,A,] | [A,,A,]2 [A,,A,]2 [A,,E,]2 [B,,E,][C,E,] | %2
 [D,F,][D,A,][D,A,][D,A,] [A,,A,]2 [C,A,][E,G,E] | [A,E]>[A,B,E] [A,CE][A,EA] [CEA]2 [A,EA]2 | %4
 [E,E]6 [D,B,][C,=A,] | [B,,B,]>[B,,B,] [B,,B,][C,=A,] [D,B,]2 [D,D][D,_A,] | %6
 [A,,A,]>[A,,A,] [A,,A,][B,,G,] [C,A,]2 [D,A,][D,A,D] | [E,A,C]2 [E,A,E]2 [E,G,D]3 [A,,A,] | %8
[M:3/4] [A,,A,]6 |[M:1/4][K:treble] [A,E][A,B,E] | %10
[M:4/4] [A,CA]2 [A,CA]2 [A,E]2[K:bass] [A,,A,][A,,A,] | [A,,A,]2 [A,,A,]2 [A,,A,]2 [C,A,][E,G,E] | %12
 [A,E]>[A,B,E] [A,CE][A,EA] [CEA]2 [A,EA]2 | [E,E]6 [A,E][K:treble][A,B,E] | %14
 [A,CA]2 [A,CA]2[K:bass] [A,,A,]2 [B,,G,][C,E,] | %15
 [D,F,][D,A,][D,A,][D,A,] [A,,A,]2 [A,,A,][A,,A,] | [D,A,]>[D,A,] [D,A,][D,A,] [E,A,]2 [E,G,]2 | %17
[M:3/4] [A,,A,]6 |] %18

